Obsidian-SemiLight/actions/16s/office-chart-line.svg

<svg viewBox="0 0 16 16" xmlns="http://www.w3.org/2000/svg"><path d="m2 2v1 1 4 1 1.626953 1 1.373047 1h12v-.998047-.001953-1.132812l-.041016-.039063-2.828125-2.828125-.003906.0039062-.005859-.0039062-2.1230471 2.123047-3.1230469-3.123047h-1.4140625-1.4609375v-4-1-1zm7 0-4.0019531 4.0019531h-1.9960938v1h2.4101563l3.5898437-3.5898437 2.1230469 2.1230468.005859-.0039062.003907.0039062 2.828125-2.828125c.002966.0050003-.707032-.7070312-.707032-.7070312l-2.125 2.125-2.1269528-2.125-.0019531.0019531zm-6 7h2.4609375l3.5351563 3.535156.0019531-.001953.0019531.001953 2.126953-2.125 2.125 2.125.482422.464844h-10.734375v-1.373047-1z" fill="#4d4d4d"/></svg>

<svg xmlns="http://www.w3.org/2000/svg" viewBox="0 0 16 16">
  <defs id="defs3051">
    <style type="text/css" id="current-color-scheme">
      .ColorScheme-Text {
        color:#4d4d4d;
      }
      </style>
  </defs>
 <path 
    style="fill:currentColor;fill-opacity:1;stroke:none" 
    d="M 2 2 L 2 3 L 2 4 L 2 8 L 2 9 L 2 10.626953 L 2 11.626953 L 2 13 L 2 14 L 14 14 L 14 13.001953 L 14 13 L 14 11.867188 L 13.958984 11.828125 L 11.130859 9 L 11.126953 9.0039062 L 11.121094 9 L 8.9980469 11.123047 L 5.875 8 L 4.4609375 8 L 3 8 L 3 4 L 3 3 L 3 2 L 2 2 z M 9 2 L 4.9980469 6.0019531 L 3.0019531 6.0019531 L 3.0019531 7.0019531 L 5.4121094 7.0019531 L 9.0019531 3.4121094 L 11.125 5.5351562 L 11.130859 5.53125 L 11.134766 5.5351562 L 13.962891 2.7070312 C 13.965857 2.7120315 13.255859 2 13.255859 2 L 11.130859 4.125 L 9.0039062 2 L 9.0019531 2.0019531 L 9 2 z M 3 9 L 5.4609375 9 L 8.9960938 12.535156 L 8.9980469 12.533203 L 9 12.535156 L 11.126953 10.410156 L 13.251953 12.535156 L 13.734375 13 L 3 13 L 3 11.626953 L 3 10.626953 L 3 9 z "
    class="ColorScheme-Text"
    />  
</svg>
